X: 1
T: The Banshee
C:James McMahon
R: reel
M: 4/4
L: 1/8
K: Gmaj
|:"G"G2 GD EDEG |"Em" AGAB d2 Bd |"C" eged BAGA |"Am" BAGE"D" EDDE |
"G" G2 GD EDEG |"Em" AGAB d2 Bd |"C" eged BAGA |"Am" BAGE"D" ED D2 ::
"Am" ea a2"D" efgf |"G" eBBA B2 Bd |"Em" eB B2 efgf |"Em" eBBA B2 Bd |
"Am" ea a2"D" efgf |"G" eBBA B2 Bd |"C" eged BAGA |"D" BAGE ED D2 :|
